X:17
T:Reel 17
M: 4/4
L:1/8
K: E minor
EF|GEEFEEEA|GEEDEDDB,|G2BGABAF|GAGEDB,A,D|E2EEEDEc|BEGED2FA|GAAGABAA|GEDB,E2:||:G2|BeeeedBe|geega2ga|fedBedBA|ABBAcAGA|BeeeedBe|geega2ef|geedBAGA|BGEDE2:|.abc